icons/line/home.svg

<svg width="24" height="24" viewBox="0 0 24 24" fill="none" xmlns="http://www.w3.org/2000/svg">
<path d="M5 9V19C5 19.5523 5.44772 20 6 20H10M5 9L11.3492 3.55782C11.7237 3.23683 12.2763 3.23683 12.6508 3.55782L19 9M5 9L2.5 11M19 9V19C19 19.5523 18.5523 20 18 20H14M19 9L21.5 11M10 20V15C10 14.4477 10.4477 14 11 14H13C13.5523 14 14 14.4477 14 15V20M10 20H14" stroke="currentColor" stroke-width="2" stroke-linecap="round" stroke-linejoin="round"/>
</svg>

<svg width="24" height="24" fill="none" xmlns="http://www.w3.org/2000/svg"><path d="M5 9v10a1 1 0 001 1h4M5 9l6.35-5.442a1 1 0 011.3 0L19 9M5 9l-2.5 2M19 9v10a1 1 0 01-1 1h-4m5-11l2.5 2M10 20v-5a1 1 0 011-1h2a1 1 0 011 1v5m-4 0h4" stroke="currentColor" stroke-width="2" stroke-linecap="round" stroke-linejoin="round"/></svg>
